dist/svgs/devui-icons/op/add-sub-node.svg

<svg xmlns="http://www.w3.org/2000/svg" viewBox="0 0 16 16"><path d="M11 12v-2h2v2h2v2h-2v2h-2v-2H9v-2h2zM8 2v2H7a1 1 0 00-1 1v6a1 1 0 001 1h1v2H7a3 3 0 01-3-3V9H1V7h3V5a3 3 0 013-3h1zm1 4V0h6v6H9zm2-2h2V2h-2v2z"/></svg>

<?xml version="1.0" encoding="UTF-8"?>
<svg width="16px" height="16px" viewBox="0 0 16 16" version="1.1" xmlns="http://www.w3.org/2000/svg" xmlns:xlink="http://www.w3.org/1999/xlink">
    <title>操作/添加子节点</title>
    <desc>Created with Sketch.</desc>
    <g id="操作/添加子节点" stroke="none" stroke-width="1" fill="none" fill-rule="evenodd">
        <g id="添加子节点" fill-rule="nonzero">
            <path d="M11,12 L11,10 L13,10 L13,12 L15,12 L15,14 L13,14 L13,16 L11,16 L11,14 L9,14 L9,12 L11,12 Z M8,2 L8,4 L7,4 C6.44771525,4 6,4.44771525 6,5 L6,11 C6,11.5522847 6.44771525,12 7,12 L8,12 L8,14 L7,14 C5.34314575,14 4,12.6568542 4,11 L4,9 L1,9 L1,7 L4,7 L4,5 C4,3.34314575 5.34314575,2 7,2 L8,2 Z M9,6 L9,0 L15,0 L15,6 L9,6 Z M11,4 L13,4 L13,2 L11,2 L11,4 Z" id="形状" fill="#293040"></path>
        </g>
    </g>
</svg>
